!!!COM: Josquin des Prez
!!!CDT: ~1450-1521/08/27
!!!OTL@@LAT: Huc me sydereo
!!!AGN: Motet
!!!SCT: NJE 21.5
!!!SCA: New Josquin Edition 21.5
!!!ONB: Sextus voice was probably added later
!!!voices: 6
**kern	**kern	**kern	**kern	**kern	**kern
*staff6	*staff5	*staff4	*staff3	*staff2	*staff1
*Ivox	*Ivox	*Ivox	*Ivox	*Ivox	*Ivox
*I"Bassus2	*I"Bassus1	*I"Sextus	*I"Tenor	*I"Altus	*I"Discantus
*I'B2	*I'B1	*I'Sx	*I'T	*I'A	*I'D
*>[A,B]	*>[A,B]	*>[A,B]	*>[A,B]	*>[A,B]	*>[A,B]
*>Part1[A]	*>Part1[A]	*>Part1[A]	*>Part1[A]	*>Part1[A]	*>Part1[A]
*>Part2[B]	*>Part2[B]	*>Part2[B]	*>Part2[B]	*>Part2[B]	*>Part2[B]
*>A	*>A	*>A	*>A	*>A	*>A
*clefF4	*clefF4	*clefGv2	*clefGv2	*clefGv2	*clefG2
*k[b-]	*k[b-]	*k[b-]	*k[b-]	*k[b-]	*k[b-]
*	*	*	*rscale:1/2	*	*
*M2/1	*M2/1	*M2/1	*M3/0	*M2/1	*M2/1
*met(C|)	*met(C|)	*met(C|)	*met(O)	*met(C|)	*met(C|)
!!primary-mensuration: met(C|)
!!incipit: 6
=1-	=1-	=1-	=1-	=1-	=1-
!	!	!	!LO:N:vis=0.	!	!
0r	0r	1.A	0r	0A	1r
.	.	.	.	.	[1a
.	.	2F/	.	.	.
=2	=2	=2	=2-	=2	=2
0r	0r	2.F/	0ryy	0r	2a/]
.	.	.	.	.	2f/
.	.	4E/	.	.	.
.	.	2D/	.	.	1f
.	.	2d\	.	.	.
=3	=3	=3	=3-	=3	=3
0r	0r	4c\	0ryy	0r	1g
.	.	4B-\	.	.	.
.	.	1c	.	.	.
.	.	.	.	.	1a
.	.	4B-\	.	.	.
.	.	4A/	.	.	.
=4	=4	=4	=4	=4	=4
!	!	!	!LO:N:vis=0.	!	!
0r	0r	4G/	0r	1r	1.b-
.	.	4F/	.	.	.
.	.	1G	.	.	.
.	.	.	.	[1d	.
.	.	4F/	.	.	4a/
.	.	4E/	.	.	4g/
=5	=5	=5	=5-	=5	=5
0r	0r	1D	0ryy	2d\]	2f/
.	.	.	.	2B-\	2d/
.	.	[1E-i	.	1B-	[1g
=6	=6	=6	=6-	=6	=6
0r	0r	2E-/]	0ryy	1c	2g/]
.	.	2F/	.	.	4f/
.	.	.	.	.	4e/
.	.	1D	.	1d	2.f/
.	.	.	.	.	4g/
=7	=7	=7	=7	=7	=7
!	!	!	!LO:N:vis=0.	!	!
0r	0r	2.C/	0r	1.e-	0g
.	.	4D/	.	.	.
.	.	2.E-i/	.	.	.
.	.	.	.	4d\	.
.	.	4F/	.	4c\	.
=8	=8	=8	=8-	=8	=8
0r	0r	1G	0ryy	2B-\	1g
.	.	.	.	2G/	.
.	.	1F	.	[1c	1a
=9	=9	=9	=9-	=9	=9
0r	0r	2E/	0ryy	2c\]	2g/
.	.	2F/	.	4B-\	1a
.	.	.	.	4A/	.
.	.	1D	.	2.B-\	.
.	.	.	.	.	4g/
.	.	.	.	4c\	4f/
=10	=10	=10	=10	=10	=10
!	!	!	!LO:N:vis=0.	!	!
0r	1r	1.A	0r	0c	0e
.	[1A	.	.	.	.
.	.	2AA/	.	.	.
=11	=11	=11	=11-	=11	=11
0r	2A\]	1AA	0ryy	1c	2r
.	2F\	.	.	.	1a
.	1F	1D	.	[1d	.
.	.	.	.	.	4g/
.	.	.	.	.	4a/
=12	=12	=12	=12-	=12	=12
0r	1G	1GG	0ryy	2d\]	4b-\
.	.	.	.	.	4a/
.	.	.	.	2B-\	4g/
.	.	.	.	.	4f/
.	1A	1C	.	2.c\	1e
.	.	.	.	4d\	.
=13	=13	=13	=13	=13	=13
!	!	!	!LO:N:vis=0.	!	!
1r	1.B-	1BB-	0r	0d	0d
[1D	.	1GG	.	.	.
.	4A\	.	.	.	.
.	4G\	.	.	.	.
=14	=14	=14	=14-	=14	=14
2D\]	2F\	0D	0ryy	2r	0r
2BB-/	2D\	.	.	1d	.
1BB-	[1G	.	.	.	.
.	.	.	.	4c\	.
.	.	.	.	4d\	.
=15	=15	=15	=15-	=15	=15
1C	2G\]	0r	0ryy	4e-i\	0r
.	.	.	.	4d\	.
.	4F#i\	.	.	4c\	.
.	4E\	.	.	4B-\	.
1D	2.F#i\	.	.	1A	.
.	4G\	.	.	.	.
=16	=16	=16	=16	=16	=16
!	!	!	!LO:N:vis=0.	!	!
1.E-	0G	0r	0r	[0G	0r
4D\	.	.	.	.	.
4C/	.	.	.	.	.
=17	=17	=17	=17-	=17	=17
2BB-/	1D	0r	0ryy	0G_	0r
2GG/	.	.	.	.	.
[1C	[1E	.	.	.	.
=18	=18	=18	=18-	=18	=18
2C/]	2E\]	0r	0ryy	0G_	0r
4BB-/	4D\	.	.	.	.
4AA/	4C/	.	.	.	.
2.BB-/	2.D\	.	.	.	.
4C/	4E\	.	.	.	.
=19	=19	=19	=19	=19	=19
!	!	!	!LO:N:vis=0.	!	!
[0C	[0E	1G	0r	0G]	1r
.	.	[1G	.	.	1g
=20	=20	=20	=20-	=20	=20
0C_	0E]	2G/]	0ryy	1r	1.g
.	.	2F/	.	.	.
.	.	2E/	.	1c	.
.	.	2D/	.	.	2f/
=21	=21	=21	=21-	=21	=21
0C]	1r	1C	0ryy	1.c	2e/
.	.	.	.	.	2d/
.	1A	1r	.	.	1c
.	.	.	.	2B-\	.
=22	=22	=22	=22	=22	=22
!	!	!	!LO:N:vis=0.	!	!
[0D	1.A	1A	0r	2A/	1r
.	.	.	.	2G/	.
.	.	[1A	.	1F	1a
.	2G\	.	.	.	.
=23	=23	=23	=23-	=23	=23
0D_	2F\	2A/]	0ryy	1r	1.a
.	2E\	2G/	.	.	.
.	1D	2F/	.	1d	.
.	.	2E/	.	.	2g/
=24	=24	=24	=24-	=24	=24
0D]	1r	1D	0ryy	1.d	2f/
.	.	.	.	.	2e/
.	1d	1r	.	.	1d
.	.	.	.	2c\	.
=25	=25	=25	=25	=25	=25
!	!	!	!LO:N:vis=0.	!	!
0r	1.d	1d	0r	2B-\	1r
.	.	.	.	2A/	.
.	.	[1d	.	1G	1dd
.	2c\	.	.	.	.
=26	=26	=26	=26-	=26	=26
0r	2B-\	2d\]	0ryy	1r	1.dd
.	2A\	2c\	.	.	.
.	1G	2B-\	.	1g	.
.	.	2A/	.	.	2cc\
=27	=27	=27	=27-	=27	=27
0r	0r	0G	0ryy	1.g	2b-\
.	.	.	.	.	2a/
.	.	.	.	.	[1g
.	.	.	.	2f\	.
=28	=28	=28	=28	=28	=28
!	!	!	!LO:N:vis=0.	!	!
0r	0r	0r	0r	2e\	2g/]
.	.	.	.	2d\	2f/
.	.	.	.	2c\	2e/
.	.	.	.	2B-\	2d/
=29	=29	=29	=29-	=29	=29
0r	0r	0r	0ryy	2A/	2c/
.	.	.	.	2G/	2B-/
.	.	.	.	1c	1A
=30	=30	=30	=30-	=30	=30
1r	1d	0r	0ryy	0B-	0G
1d	[1d	.	.	.	.
=31	=31	=31	=31	=31	=31
!	!	!	!LO:N:vis=0.	!	!
1.d	2d\]	1d	0r	0r	0r
.	2c\	.	.	.	.
.	2B-\	[1d	.	.	.
2c\	2A\	.	.	.	.
=32	=32	=32	=32-	=32	=32
2B-\	1.G	2d\]	0ryy	0r	0r
2A\	.	2c\	.	.	.
[1G	.	2B-\	.	.	.
.	2F\	2A/	.	.	.
=33	=33	=33	=33-	=33	=33
2G\]	2E\	2G/	0ryy	0r	0r
2F\	2D\	1A	.	.	.
2E\	2C/	.	.	.	.
2D\	2BB-/	2G/	.	.	.
=34	=34	=34	=34	=34	=34
!	!	!	!LO:N:vis=0.	!	!
2C/	4AA/	2A/	0r	0r	0r
.	4GG/	.	.	.	.
2BB-/	2.G\	2B-\	.	.	.
1AA	.	1c	.	.	.
.	4F#i\	.	.	.	.
.	4F#i\	.	.	.	.
.	4E\	.	.	.	.
=35	=35	=35	=35-	=35	=35
[0GG	[0G	1.B-	0ryy	1r	1r
.	.	.	.	[1B-	[1d
.	.	4A/	.	.	.
.	.	4G/	.	.	.
=36	=36	=36	=36-	=36	=36
0GG]	0G]	2d\	0ryy	1B-]	1d]
.	.	2G/	.	.	.
.	.	4d\	.	1B-	1d
.	.	4c\	.	.	.
.	.	4B-\	.	.	.
.	.	4A/	.	.	.
=37	=37	=37	=37	=37	=37
!	!	!	!LO:N:vis=0.	!	!
0r	0r	1G	0r	1B-	1d
.	.	[1C	.	[1c	[1e
=38	=38	=38	=38-	=38	=38
0r	0r	2C/]	0ryy	2c\]	2e/]
.	.	4D/	.	2A/	2c/
.	.	4E/	.	.	.
.	.	2F/	.	2A/	1c
.	.	4G/	.	[2F/	.
.	.	4A/	.	.	.
=39	=39	=39	=39-	=39	=39
0r	0r	1D	0ryy	2F/]	1.f
.	.	.	.	2D/	.
.	.	2r	.	2D/	.
.	.	[2d\	.	[2B-\	2f/
=40	=40	=40	=40	=40	=40
!	!	!	!LO:N:vis=0.	!	!
0r	0r	2d\]	0r	2B-\]	1f
.	.	4c\	.	4A/	.
.	.	4B-\	.	4G/	.
.	.	2c\	.	2A/	[1f
.	.	2d\	.	[2d\	.
=41	=41	=41	=41-	=41	=41
0r	0r	1.A	0ryy	2d\]	2f/]
.	.	.	.	4c#i\	4e/
.	.	.	.	4Bni\	4d/
.	.	.	.	2c#i\	2e/
.	.	2D/	.	2d\	2d/
=42	=42	=42	=42-	=42	=42
1r	1r	2D/	0ryy	0d	[0d
.	.	2.G/	.	.	.
[1G	[1B-	.	.	.	.
.	.	4A/	.	.	.
.	.	4B-\	.	.	.
.	.	4c\	.	.	.
=43	=43	=43	=43	=43	=43
!	!	!	!LO:N:vis=0.	!	!
1G]	1B-]	2d\	0r	0r	0d]
.	.	2G/	.	.	.
1G	1B-	2.d\	.	.	.
.	.	4c\	.	.	.
=44	=44	=44	=44-	=44	=44
1G	1B-	2d\	0ryy	0r	0r
.	.	1e	.	.	.
[1A	[1c	.	.	.	.
.	.	2c\	.	.	.
=45	=45	=45	=45-	=45	=45
2A\]	2c\]	1c	0ryy	0r	0r
2F\	2A\	.	.	.	.
1F	2A\	[1f	.	.	.
.	[2D\	.	.	.	.
=46	=46	=46	=46	=46	=46
!	!	!	!LO:N:vis=0.	!	!
1.B-	2D\]	2f\]	0r	0r	0r
.	2BB-/	2f\	.	.	.
.	2BB-/	2f\	.	.	.
2B-\	[2E-\	[2g\	.	.	.
=47	=47	=47	=47-	=47	=47
1B-	2E-\]	2g\]	0ryy	0r	0r
.	4D\	4f\	.	.	.
.	4C/	4e\	.	.	.
[1B-	2D\	2f\	.	.	.
.	[2G\	2g\	.	.	.
=48	=48	=48	=48-	=48	=48
2B-\]	2G\]	2d\	0ryy	0r	0r
4A\	4F#i\	2e-i\	.	.	.
4G\	4E\	.	.	.	.
2A\	2F#i\	1c	.	.	.
2G\	2G\	.	.	.	.
=49	=49	=49	=49	=49	=49
!	!	!	!LO:N:vis=0.	!	!
[0G	0G	1B-	[y0G	0r	1r
.	.	[1d	.	.	[1b-
=50	=50	=50	=50-	=50	=50
0G]	0GG	2d\]	0G_yy	1.d	1b-]
.	.	2d\	.	.	.
.	.	2d\	.	.	1b-
.	.	2G/	.	2d\	.
=51	=51	=51	=51-	=51	=51
0GG	0G	2.B-\	0G]yy	1d	1b-
.	.	4c\	.	.	.
.	.	2.d\	.	1d	1b-
.	.	4e\	.	.	.
=52	=52	=52	=52	=52	=52
!	!	!	!LO:N:vis=0.	!	!
1.D	1.F	[0f	[y0A	0d	1.a
2D\	2F\	.	.	.	2f/
=53	=53	=53	=53-	=53	=53
1D	1F	0f]	0A_yy	1A	1f
1D	1F	.	.	2.D/	2r
.	.	.	.	.	[2f/
.	.	.	.	4E/	.
=54	=54	=54	=54-	=54	=54
0D	1.F	1r	0A]yy	2F/	2f/]
.	.	.	.	2G/	2d/
.	.	1d	.	1A	1f
.	4E\	.	.	.	.
.	4D\	.	.	.	.
=55	=55	=55	=55	=55	=55
!	!	!	!LO:N:vis=0.	!	!
0AA	0A	2e\	[y0c	1r	1e
.	.	2A/	.	.	.
.	.	2.A/	.	[1A	[1cc
.	.	4G/	.	.	.
=56	=56	=56	=56-	=56	=56
0F	1r	1A	0c_yy	2A/]	2cc\]
.	.	.	.	2B-\	2b-\
.	1F	1F	.	2c\	1a
.	.	.	.	2d\	.
=57	=57	=57	=57-	=57	=57
1.E-	2G\	1.C	0c]yy	0e-i	0g
.	2C/	.	.	.	.
.	2.G\	.	.	.	.
2D\	.	4D/	.	.	.
.	4A\	4E-i/	.	.	.
=58	=58	=58	=58	=58	=58
!	!	!	!LO:N:vis=0.	!	!
0BB-	1.B-	2F/	[y0d	2.d\	[0f
.	.	2BB-/	.	.	.
.	.	.	.	4e\	.
.	.	2.BB-/	.	2f\	.
.	4A\	.	.	2B-\	.
.	4G\	4C/	.	.	.
=59	=59	=59	=59-	=59	=59
2r	2F\	2D/	0d_yy	2A/	1f]
2BB-/	2G\	2BB-/	.	1B-	.
2.BB-/	1D	1B-	.	.	2r
.	.	.	.	4A/	2b-\
4C/	.	.	.	4G/	.
=60	=60	=60	=60-	=60	=60
2D\	2r	1r	0d]yy	2F/	2a/
2GG/	2BB-/	.	.	2G/	1b-
1D	2.BB-/	1B-	.	2D/	.
.	.	.	.	2B-\	4a/
.	4C/	.	.	.	4g/
=61	=61	=61	=61	=61	=61
!	!	!	!LO:N:vis=0.	!	!
2r	2D\	1r	[y0d	2A/	2f/
2BB-/	2GG/	.	.	1B-	2g/
2.BB-/	1D	1B-	.	.	2d/
.	.	.	.	4A/	2b-\
4C/	.	.	.	4G/	.
=62	=62	=62	=62-	=62	=62
2D\	2r	1r	0d_yy	2F/	2a/
2GG/	2BB-/	.	.	2G/	1b-
1D	2.BB-/	[1B-	.	2D/	.
.	.	.	.	[2B-\	4a/
.	4C/	.	.	.	4g/
=63	=63	=63	=63-	=63	=63
1r	2D\	1B-]	0d]yy	2B-\]	2f/
.	2GG/	.	.	4A/	2g/
.	.	.	.	4G/	.
[1F	1D	1A	.	2F/	1a
.	.	.	.	2G/	.
=64	=64	=64	=64	=64	=64
!	!	!	!LO:N:vis=0.	!	!
1F]	1r	1D	0r	1A	0r
1F	[1D	[1A	.	1r	.
=65	=65	=65	=65-	=65	=65
1F	1D]	1A]	0ryy	0d	0r
[1G	1GG	2G/	.	.	.
.	.	[2B-\	.	.	.
=66	=66	=66	=66-	=66	=66
1G]	1.B-	2B-\]	0ryy	1d	0r
.	.	4A/	.	.	.
.	.	4G/	.	.	.
[1D	.	[1F	.	1d	.
.	4A\	.	.	.	.
.	4G\	.	.	.	.
=67	=67	=67	=67	=67	=67
!	!	!	!LO:N:vis=0.	!	!
1D]	1A	2F/]	0r	1.d	0r
.	.	2G/	.	.	.
[1F	[1D	1A	.	.	.
.	.	.	.	2c\	.
=68	=68	=68	=68-	=68	=68
2F\]	2D\]	1D	0ryy	2.A/	0r
4E\	4E\	.	.	.	.
4D\	4F\	.	.	4B-\	.
2E\	2G\	2C/	.	2c\	.
[2D\	[2F\	[2D/	.	[2B-\	.
=69	=69	=69	=69-	=69	=69
2D\]	2F\]	2D/]	0ryy	4B-\]	0r
.	.	.	.	4A/	.
2C/	2E\	2E/	.	1A	.
1BB-	1D	2F/	.	.	.
.	.	2D/	.	2G/	.
=70	=70	=70	=70	=70	=70
!	!	!	!LO:N:vis=0.	!	!
[0AA	2.C/	2F/	[y0c	0A	1r
.	.	1E	.	.	.
.	4D\	.	.	.	.
.	2E\	.	.	.	1cc
.	2F\	[2A/	.	.	.
=71	=71	=71	=71-	=71	=71
0AA]	2E\	2A/]	0c_yy	1r	1.cc
.	2F\	4G/	.	.	.
.	.	4F/	.	.	.
.	1C	1E	.	1A	.
.	.	.	.	.	2cc\
=72	=72	=72	=72-	=72	=72
0FF	1r	2r	0c]yy	1.A	1cc
.	.	1c	.	.	.
.	1F	.	.	.	[1a
.	.	[2A/	.	2F/	.
=73	=73	=73	=73	=73	=73
!	!	!	!LO:N:vis=0	!	!
1r	1D	2A/]	[y0d	1.F	2a/]
.	.	2A/	.	.	2f/
1BB-	1D	[1d	.	.	1f
.	.	.	.	[2B-\	.
=74	=74	=74	=74-	=74	=74
1GG	0G	2d\]	0d]yy	2B-\]	1.b-
.	.	4c\	.	2G/	.
.	.	4d\	.	.	.
1GG	.	2B-\	.	[1G	.
.	.	4c\	.	.	2g/
.	.	4B-\	.	.	.
=75	=75	=75	=75-	=75	=75
0C	0E	1c	0e	2G/]	1.g
.	.	.	.	1.c	.
.	.	1C	.	.	.
.	.	.	.	.	[2cc\
=76	=76	=76	=76	=76	=76
0FF	1F	2C/	0c	2.A/	1cc]
.	.	4D/	.	.	.
.	.	4E/	.	4F/	.
.	2r	2.F/	.	[1F	2.a/
.	[2F\	.	.	.	.
.	.	8E/L	.	.	4f/
.	.	8F/J	.	.	.
=77	=77	=77	=77-	=77	=77
!	!	!	!LO:N:vis=1.	!	!
0BB-	2F\]	2.D/	[y0d	0F]	0f
.	2F\	.	.	.	.
.	.	4BB-/	.	.	.
.	2.D\	2BB-/	.	.	.
.	.	[2F/	.	.	.
.	4BB-/	.	.	.	.
=78	=78	=78	=78-	=78	=78
1r	0BB-	2F/]	1d]yy	[0B-	1f
.	.	2D/	.	.	.
1BB-	.	2.D/	1d	.	[1b-
.	.	4BB-/	.	.	.
=79	=79	=79	=79	=79	=79
!	!	!	!LO:N:vis=0.	!	!
0BB-	1r	[0B-	[y0d	0B-]	1b-]
.	[1B-	.	.	.	2g/
.	.	.	.	.	4f/
.	.	.	.	.	4e/
=80	=80	=80	=80-	=80	=80
1r	2B-\]	0B-_	0d_yy	1r	1d
.	2A\	.	.	.	.
1BB-	2G\	.	.	[1B-	[1dd
.	4F\	.	.	.	.
.	4E\	.	.	.	.
=81	=81	=81	=81-	=81	=81
[0BB-	0D	0B-]	0d]yy	2B-\]	2dd\]
.	.	.	.	2A/	2cc\
.	.	.	.	2G/	2b-\
.	.	.	.	4F/	4a/
.	.	.	.	4E/	4g/
=82	=82	=82	=82	=82	=82
!	!	!	!LO:N:vis=0.	!	!
0BB-]	1.B-	0r	0r	1D	0f
.	.	.	.	[1f	.
.	2B-\	.	.	.	.
=83	=83	=83	=83-	=83	=83
0r	1B-	0r	0ryy	2f\]	0r
.	.	.	.	2f\	.
.	1A	.	.	2f\	.
.	.	.	.	[2e\	.
=84	=84	=84	=84-	=84	=84
0r	2G\	0r	0ryy	4e\]	0r
.	.	.	.	4d\	.
.	2F\	.	.	2d\	.
.	1E	.	.	2.c#i\	.
.	.	.	.	4d\	.
=85	=85	=85	=85	=85	=85
!	!	!	!LO:N:vis=0.	!	!
1.B-	0D	1.d	0r	0d	1r
.	.	.	.	.	[1f
2B-\	.	2d\	.	.	.
=86	=86	=86	=86-	=86	=86
1B-	0r	1d	0ryy	0r	2f/]
.	.	.	.	.	2f/
1A	.	1c	.	.	2f/
.	.	.	.	.	[2e/
=87	=87	=87	=87-	=87	=87
2G\	0r	2B-\	0ryy	0r	4e/]
.	.	.	.	.	4d/
2F\	.	2A/	.	.	2d/
1E	.	1G	.	.	2.c#i/
.	.	.	.	.	4d/
=88	=88	=88	=88	=88	=88
!	!	!	!LO:N:vis=0.	!	!
0D	1r	2.A/	[y0A	1r	0d
.	.	4F/	.	.	.
.	1D	1F	.	1d	.
=89	=89	=89	=89-	=89	=89
1r	1.F	1r	0A_yy	1c	1r
1D	.	1f	.	1d	1a
.	2G\	.	.	.	.
=90	=90	=90	=90-	=90	=90
1F	1A	1f	0A]yy	1.c	1a
1F	[1F	1f	.	.	1a
.	.	.	.	2c\	.
=91	=91	=91	=91	=91	=91
!	!	!	!LO:N:vis=0	!	!
1.BB-	1F]	1.f	[y0d	1.B-	1.b-
.	[1B-	.	.	.	.
2BB-/	.	2f\	.	4A/	2b-\
.	.	.	.	4G/	.
=92	=92	=92	=92-	=92	=92
0BB-	2B-\]	1f	0d]yy	1F	0b-
.	2B-\	.	.	.	.
.	1B-	2r	.	1f	.
.	.	2d\	.	.	.
=93	=93	=93	=93-	=93	=93
1.C	1.G	2e\	[0c	2r	1r
.	.	4c\	.	1e	.
.	.	4d\	.	.	.
.	.	4e\	.	.	[1g
.	.	4f\	.	.	.
2C/	2G\	[2g\	.	2e\	.
=94	=94	=94	=94	=94	=94
1C	1G	2g\]	1c]	1e	2g/]
.	.	4G/	.	.	2g/
.	.	4A/	.	.	.
1GG	1G	4B-\	1B-	1d	2g/
.	.	4c\	.	.	.
.	.	[2d\	.	.	2g/
=95	=95	=95	=95-	=95	=95
1.D	2F\	2d\]	0A	1.f	2a/
.	2D\	4D/	.	.	4f/
.	.	4E/	.	.	4g/
.	2F\	4F/	.	.	4a/
.	.	4G/	.	.	4b-\
2AA/	[2E\	2A/	.	2c\	[2cc\
=96	=96	=96	=96-	=96	=96
1C	2E\]	2E/	0G	1e-i	2cc\]
.	2C/	2.G/	.	.	2g/
1BB-	1D	.	.	2d\	1dd
.	.	4F/	.	.	.
.	.	4D/	.	2B-\	.
.	.	4G/	.	.	.
=97	=97	=97	=97	=97	=97
!	!	!	!LO:N:vis=0.	!	!
[0AA	1E	2.C/	[y0A	2c\	2.cc\
.	.	.	.	2.A/	.
.	.	4D/	.	.	4b-\
.	2r	2F/	.	.	4a/
.	.	.	.	4B-\	4g/
.	2AA/	2E/	.	4c\	[2a/
.	.	.	.	4d\	.
=98	=98	=98	=98-	=98	=98
0AA]	2C/	2AA/	0A_yy	4e\	2a/]
.	.	.	.	4f\	.
.	2D\	2A/	.	1d	4g/
.	.	.	.	.	4f/
.	1E	2r	.	.	1e
.	.	[2A/	.	2c#i\	.
=99	=99	=99	=99-	=99	=99
0D	1F	4A/]	0A]yy	1d	0d
.	.	4A/	.	.	.
.	.	2A/	.	.	.
.	[1D	2F/	.	1r	.
.	.	2D/	.	.	.
=100	=100	=100	=100	=100	=100
!	!	!	!LO:N:vis=0.	!	!
0GG	1D]	1d	[y0G	0B-	1r
.	1D	2r	.	.	1d
.	.	[2d\	.	.	.
=101	=101	=101	=101-	=101	=101
1GG	0G	2d\]	0G_yy	1B-	1d
.	.	2d\	.	.	.
[1C	.	2.c\	.	[1c	[1e
.	.	4B-\	.	.	.
=102	=102	=102	=102-	=102	=102
1C]	1G	2G/	0G]yy	1c]	1e]
.	.	1c	.	.	.
1C	[1E	.	.	1G	1e
.	.	2c\	.	.	.
=103	=103	=103	=103	=103	=103
!	!	!	!LO:N:vis=0.	!	!
1.AA	2E\]	1c	0r	1.c	1.e
.	2E\	.	.	.	.
.	1E	2r	.	.	.
2AA/	.	[2A/	.	2c\	2e/
=104	=104	=104	=104-	=104	=104
1AA	1r	2A/]	0ryy	2c\	1e
.	.	2A/	.	1A	.
[1D	[1F	2A/	.	.	1r
.	.	2D/	.	2A/	.
=105	=105	=105	=105-	=105	=105
2D\]	2F\]	2F/	0ryy	2A/	0r
2D\	2F\	2D/	.	2.B-\	.
2D\	2F\	2F/	.	.	.
.	.	.	.	4A/	.
2D\	2F\	2D/	.	[2A/	.
=106	=106	=106	=106	=106	=106
!	!	!	!LO:N:vis=0.	!	!
2C/	2E\	2A/	0r	2A/]	1r
2BB-/	2D\	2B-\	.	2G/	.
1AA	2C/	1c	.	2A/	2r
.	[2A\	.	.	[2c\	[2f/
=107	=107	=107	=107-	=107	=107
0r	2A\]	0r	0ryy	2c\]	2f/]
.	2A\	.	.	2c\	2f/
.	2A\	.	.	2c\	2f/
.	2A\	.	.	2c\	2f/
=108	=108	=108	=108-	=108	=108
0r	2G\	1r	0ryy	2B-\	2e/
.	2F\	.	.	2A/	2d/
.	1E	2r	.	1G	1c
.	.	2G/	.	.	.
=109	=109	=109	=109	=109	=109
!	!	!	!LO:N:vis=1.	!	!
1.D	2r	2A/	[y0F	0r	0r
.	2A\	2D/	.	.	.
.	2D\	2.A/	.	.	.
2D\	[2A\	.	.	.	.
.	.	4G/	.	.	.
=110	=110	=110	=110-	=110	=110
2D\	4A\]	4F/	1F]yy	2.A/	0r
.	4G\	4E/	.	.	.
2D\	2F\	2D/	.	.	.
.	.	.	.	4B-\	.
*	*	*M3/1	*	*	*
*	*	*met(3)	*	*	*
2C/	2E\	3.E/	1G	2c\	.
2BB-/	2D\	6F/	.	[2d\	.
.	.	3G/	.	.	.
=111	=111	=111	=111-	=111	=111
1AA	1E	3.C/	0A	2d\]	1r
.	.	6D/	.	2c#i\	.
.	.	3E/	.	.	.
*	*	*M2/1	*	*	*
*	*	*met(C|)	*	*	*
[1D	1D	[1F	.	1d	[1f
=112	=112	=112	=112	=112	=112
2D\]	1r	2F/]	0B-	2.D/	2f/]
2D\	.	2D/	.	.	2f/
.	.	.	.	4E/	.
2D\	1D	1D	.	1F	2f/
2D\	.	.	.	.	2f/
=113	=113	=113	=113-	=113	=113
2C/	1E	0r	0c	1G	2e/
2BB-/	.	.	.	.	2d/
1AA	1E	.	.	2.A/	1c
.	.	.	.	4A/	.
=114	=114	=114	=114-	=114	=114
2.D\	1F	0r	0A	2A/	2r
.	.	.	.	2A/	2.f/
4D\	.	.	.	.	.
2D\	2.D\	.	.	2F/	.
.	.	.	.	.	4g/
2D\	.	.	.	2D/	2a/
.	4D\	.	.	.	.
=115	=115	=115	=115	=115	=115
!	!	!	!LO:N:vis=0.	!	!
2BB-/	2D\	2.d\	[y0B-	1D	2d/
2GG/	2D\	.	.	.	2dd\
.	.	4d\	.	.	.
1GG	2BB-/	2d\	.	2.d\	2r
.	2GG/	2d\	.	.	[2dd\
.	.	.	.	4d\	.
=116	=116	=116	=116-	=116	=116
1r	1GG	2B-\	0B-_yy	2d\	2dd\]
.	.	2G/	.	2d\	2dd\
[1GG	1G	1G	.	2B-\	2dd\
.	.	.	.	2G/	2dd\
=117	=117	=117	=117-	=117	=117
0GG]	2r	2.d\	0B-]yy	1G	2.b-\
.	2.G\	.	.	.	.
.	.	4d\	.	.	4g/
.	.	2d\	.	[1d	2g/
.	4G\	.	.	.	.
.	2G\	2d\	.	.	2g/
=118	=118	=118	=118	=118	=118
0D	2F\	1f	[0Al	2d\]	2.a/
.	2D\	.	.	1f	.
.	.	.	.	.	4f/
.	1F	1d	.	.	1f
.	.	.	.	4e\	.
.	.	.	.	4d\	.
=119	=119	=119	=119-	=119	=119
1AA	1E	2e\	0A_	1c	2r
.	.	2c\	.	.	2cc\
1D	2r	2d\	.	1F	2.a/
.	2D\	2f\	.	.	.
.	.	.	.	.	4b-\
=120	=120	=120	=120-	=120	=120
1C	2E\	1e	0A_	2r	1cc
.	2C/	.	.	2c\	.
1D	1F	2r	.	2.A/	1r
.	.	2d\	.	.	.
.	.	.	.	4B-\	.
=121	=121	=121	=121	=121	=121
[0AAl	[0El	2e\	0A_	[0cl	2r
.	.	1c	.	.	2cc\
.	.	.	.	.	2.a/
.	.	4B-\	.	.	.
.	.	4A/	.	.	4b-\
=122	=122	=122	=122-	=122	=122
0AA]	0E]	0el	0A]	0c]	0ccl
!!LO:LB:i:g=z
=123||	=123||	=123||	=123||	=123||	=123||
*>B	*>B	*>B	*>B	*>B	*>B
!!section: Secunda pars: Felle sitim magni regis
!!!OMD: Secunda pars: Felle sitim magni regis
*met(C|)	*met(C|)	*met(C|)	*met(C|)	*met(C|)	*met(C|)
*	*	*	*rscale:1	*	*
0r	0r	0c	0r	0r	0g
=124	=124	=124	=124	=124	=124
0r	0r	1C	0r	0r	1g
.	.	[1F	.	.	[1a
=125	=125	=125	=125	=125	=125
0r	0r	1F]	0r	0c	1a]
.	.	1E	.	.	1g
=126	=126	=126	=126	=126	=126
0r	0r	1A	0r	1c	1cc
.	.	2G/	.	[1d	2b-\
.	.	2F/	.	.	[2a/
=127	=127	=127	=127	=127	=127
0r	0r	1D	0r	1d]	2a/]
.	.	.	.	.	4g/
.	.	.	.	.	4f/
.	.	1A	.	1c	1e
=128	=128	=128	=128	=128	=128
0r	0r	1D	0r	1f	1d
.	.	1r	.	2e\	1r
.	.	.	.	[2d\	.
=129	=129	=129	=129	=129	=129
0r	0r	1F	0r	2d\]	1a
.	.	.	.	4c\	.
.	.	.	.	4B-\	.
.	.	1F	.	1A	1a
=130	=130	=130	=130	=130	=130
0r	0r	2G/	0r	1G	2.b-\
.	.	2E/	.	.	.
.	.	.	.	.	4g/
.	.	2G/	.	1d	2b-\
.	.	[2F/	.	.	[2a/
=131	=131	=131	=131	=131	=131
0r	0r	2F/]	0r	1d	2a/]
.	.	1G	.	.	1b-
.	.	.	.	[1e-	.
.	.	4F/	.	.	4a/
.	.	4E/	.	.	4g/
=132	=132	=132	=132	=132	=132
0r	0r	1.A	0r	2e-\]	1.cc
.	.	.	.	4d\	.
.	.	.	.	4c\	.
.	.	.	.	2.e-i\	.
.	.	2B-\	.	.	2b-\
.	.	.	.	4d\	.
=133	=133	=133	=133	=133	=133
0r	0r	2c\	0r	2c\	2a/
.	.	1d	.	2B-\	1g
.	.	.	.	1A	.
.	.	2c#i\	.	.	4f/
.	.	.	.	.	4e/
=134	=134	=134	=134	=134	=134
1r	1A	0d	0r	1D	0f
1D	1A	.	.	2r	.
.	.	.	.	[2F/	.
=135	=135	=135	=135	=135	=135
1D	1.B-	0r	0r	2F/]	0r
.	.	.	.	2F/	.
[1E-	.	.	.	[1G	.
.	4A\	.	.	.	.
.	4G\	.	.	.	.
=136	=136	=136	=136	=136	=136
2E-\]	1c	0r	0r	2G/]	0r
4D\	.	.	.	4F/	.
4C/	.	.	.	4E/	.
2E-i\	2.B-\	.	.	2G/	.
2D\	.	.	.	2F/	.
.	8A\L	.	.	.	.
.	8B-\J	.	.	.	.
=137	=137	=137	=137	=137	=137
2C/	2A\	0r	0r	2E/	0r
2BB-/	2.G\	.	.	2.D/	.
1AA	.	.	.	.	.
.	4F#i\	.	.	4C/	.
.	4F#i\	.	.	4C/	.
.	4E\	.	.	4BB-/	.
=138	=138	=138	=138	=138	=138
[0GG	0G	1.d	0r	1D	0b-
.	.	.	.	[1d	.
.	.	2c\	.	.	.
=139	=139	=139	=139	=139	=139
0GG]	1r	1B-	0G	1d]	1b-
.	1G	1B-	.	2.d\	1b-
.	.	.	.	4e\	.
=140	=140	=140	=140	=140	=140
0r	1F	2.c\	0A	1f	1a
.	.	4A/	.	.	.
.	2F\	2A/	.	2r	[1cc
.	[2A\	[2c\	.	2F/	.
=141	=141	=141	=141	=141	=141
0r	2A\]	2c\]	0c	1F	2cc\]
.	4G\	2d\	.	.	4b-\
.	4F\	.	.	.	4a/
.	1E	1e	.	2.G/	1g
.	.	.	.	4A/	.
=142	=142	=142	=142	=142	=142
0r	1D	1f	0d	2B-\	0f
.	.	.	.	2A/	.
.	1r	1r	.	1B-	.
=143	=143	=143	=143	=143	=143
1.D	1.F	1.d	0d	1A	2r
.	.	.	.	.	1f
.	.	.	.	2r	.
2D\	2F\	2d\	.	[2A/	2f/
=144	=144	=144	=144	=144	=144
1D	1F	1d	0r	2A/]	1f
.	.	.	.	2A/	.
1BB-	1G	1d	.	1B-	1d
=145	=145	=145	=145	=145	=145
1.C	1.E	1.c	0r	1G	1.e
.	.	.	.	[1A	.
2AA/	2E\	2c\	.	.	2e/
=146	=146	=146	=146	=146	=146
0AA	0E	2.c\	0c	2A/]	1e
.	.	.	.	2A/	.
.	.	4d\	.	.	.
.	.	2e\	.	1A	2r
.	.	2c\	.	.	2cc\
=147	=147	=147	=147	=147	=147
0r	0r	4f\	0d	2F/	2a/
.	.	4e\	.	.	.
.	.	4d\	.	2.G/	2.b-\
.	.	4c\	.	.	.
.	.	2d\	.	.	.
.	.	.	.	4A/	4cc\
.	.	2G/	.	2B-\	2dd\
=148	=148	=148	=148	=148	=148
0r	1r	2.c\	1e	2c\	2g/
.	.	.	.	2.A/	2.cc\
.	.	4A/	.	.	.
.	[1F	2A/	1c	.	.
.	.	.	.	4G/	4b-\
.	.	[2f\	.	4F/	4a/
.	.	.	.	4E/	4g/
=149	=149	=149	=149	=149	=149
0BB-	1F]	4f\]	1.d	1D	0f
.	.	4e\	.	.	.
.	.	4d\	.	.	.
.	.	4c\	.	.	.
.	1F	1B-	.	1r	.
.	.	.	2d\	.	.
=150	=150	=150	=150	=150	=150
1BB-	1F	2r	0d	1D	0r
.	.	1d	.	.	.
1BB-	1G	.	.	1D	.
.	.	2d\	.	.	.
=151	=151	=151	=151	=151	=151
1C	0A	1c	0r	1E	0r
[1D	.	1A	.	2.F/	.
.	.	.	.	4G/	.
=152	=152	=152	=152	=152	=152
1D]	0D	0d	0r	2A/	0r
.	.	.	.	1B-	.
1GG	.	.	.	.	.
.	.	.	.	4A/	.
.	.	.	.	4G/	.
=153	=153	=153	=153	=153	=153
1.D	1.F	0d	0A	2A/	0r
.	.	.	.	2D/	.
.	.	.	.	[1f	.
2D\	2F\	.	.	.	.
=154	=154	=154	=154	=154	=154
1D	1F	0r	0d	2f\]	0r
.	.	.	.	2f\	.
1BB-	1B-	.	.	1f	.
=155	=155	=155	=155	=155	=155
1F	1A	0r	1.c	2r	0r
.	.	.	.	2f\	.
2C/	2G\	.	.	2e\	.
[2D\	[2F\	.	2B-\	[2f\	.
=156	=156	=156	=156	=156	=156
4D\]	2F\]	0r	1A	4f\]	0r
4C/	.	.	.	4e\	.
2AA/	2E\	.	.	2c\	.
1BB-	1D	.	1G	1d	.
=157	=157	=157	=157	=157	=157
0AA	[0E	0e	0A	1c	1.cc
.	.	.	.	2r	.
.	.	.	.	[2c\	2cc\
=158	=158	=158	=158	=158	=158
1.C	1E]	1e	0G	2c\]	1cc
.	.	.	.	2c\	.
.	2r	[1e	.	1c	1g
2C/	[2G\	.	.	.	.
=159	=159	=159	=159	=159	=159
1C	2G\]	1e]	0r	1G	1r
.	2G\	.	.	.	.
2GG/	1G	2d\	.	[1d	[1b-
[2G\	.	2G/	.	.	.
=160	=160	=160	=160	=160	=160
2G\]	1D	0d	0r	2d\]	2b-\]
2F\	.	.	.	2A/	2a/
1G	[1d	.	.	1B-	1g
=161	=161	=161	=161	=161	=161
1D	2d\]	1r	1.F	1A	1f
.	2d\	.	.	.	.
2r	1d	2r	.	2A/	1r
2GG/	.	2d\	2G/	[2B-\	.
=162	=162	=162	=162	=162	=162
2.D\	1d	2.f\	1A	4B-\]	0r
.	.	.	.	4A/	.
.	.	.	.	2A/	.
4C/	.	4e\	.	.	.
1BB-	2r	1d	1B-	2.G/	.
.	2D\	.	.	.	.
.	.	.	.	4F/	.
=163	=163	=163	=163	=163	=163
0AA	1E	1c	1c	0A	2a/
.	.	.	.	.	2.cc\
.	1F	2r	1A	.	.
.	.	.	.	.	4b-\
.	.	2c\	.	.	[2a/
=164	=164	=164	=164	=164	=164
0r	0G	2B-\	0B-	1r	2a/]
.	.	2.d\	.	.	4g/
.	.	.	.	.	4f/
.	.	.	.	1d	1g
.	.	4c\	.	.	.
.	.	4d\	.	.	.
.	.	4e\	.	.	.
=165	=165	=165	=165	=165	=165
1r	[0D	0f	[0A	0d	0a
[1D	.	.	.	.	.
=166	=166	=166	=166	=166	=166
2D\]	0D]	1r	0A]	1d	1r
2E\	.	.	.	.	.
1F	.	1f	.	[1d	1a
=167	=167	=167	=167	=167	=167
1G	0r	2.d\	0r	1d]	1b-
.	.	4e\	.	.	.
2D\	.	2f\	.	1d	2a/
[2G\	.	[2B-\	.	.	[2b-\
=168	=168	=168	=168	=168	=168
2G\]	0r	2B-\]	0r	1.d	2b-\]
4F\	.	2B-\	.	.	4a/
4E\	.	.	.	.	4g/
2F\	.	2A/	.	.	2a/
2G\	.	[2B-\	.	2d\	2d/
=169	=169	=169	=169	=169	=169
2D\	0r	2B-\]	0r	1d	1.f
1B-	.	2B-\	.	.	.
.	.	1B-	.	1d	.
2B-\	.	.	.	.	2f/
=170	=170	=170	=170	=170	=170
2B-\	0r	1.f	0r	1d	2f/
1BB-	.	.	.	.	1b-
.	.	.	.	[1d	.
2BB-/	.	2f\	.	.	2b-\
=171	=171	=171	=171	=171	=171
1BB-	0r	1f	0r	2d\]	1b-
.	.	.	.	4c\	.
.	.	.	.	4B-\	.
1F	.	1f	.	1c	1a
=172	=172	=172	=172	=172	=172
2BB-/	0r	1f	0r	1B-	1.dd
1B-	.	.	.	.	.
.	.	2B-\	.	2G/	.
2A\	.	2c\	.	2A/	2cc\
=173	=173	=173	=173	=173	=173
2G\	0r	2d\	0r	2B-\	2b-\
2F\	.	4e\	.	2.c\	2.a/
.	.	4f\	.	.	.
1E	.	2g\	.	.	.
.	.	.	.	4B-\	4g/
.	.	2c\	.	2G/	[2g/
=174	=174	=174	=174	=174	=174
1D	1r	1d	0r	1A	2g/]
.	.	.	.	.	2f#i/
[1GG	2r	2B-\	.	1G	1g
.	[2G\	2r	.	.	.
=175	=175	=175	=175	=175	=175
1GG]	2G\]	2.B-\	1G	0r	2.b-\
.	2G\	.	.	.	.
.	.	4B-\	.	.	4b-\
1r	2F\	2c\	1A	.	2a/
.	2D\	2d\	.	.	2f/
=176	=176	=176	=176	=176	=176
1r	1E	1G	1c	0r	1g
[1D	4D\	2A/	1d	.	[1f
.	4E\	.	.	.	.
.	4F\	2r	.	.	.
.	4G\	.	.	.	.
=177	=177	=177	=177	=177	=177
2D\]	4A\	2.F/	1d	0r	2f/]
.	4F\	.	.	.	.
2D\	2.B-\	.	.	.	4e/
.	.	4F/	.	.	4d/
2C/	.	2G/	1r	.	1e
.	4A\	.	.	.	.
2AA/	[2A\	2A/	.	.	.
=178	=178	=178	=178	=178	=178
1BB-	2A\]	1D	1r	2.d\	1d
.	2G\	.	.	.	.
.	.	.	.	4d\	.
1AA	1A	2E/	1c	2c\	1r
.	.	[2A/	.	2A/	.
=179	=179	=179	=179	=179	=179
0r	0r	2A/]	1d	1B-	2.dd\
.	.	2G/	.	.	.
.	.	.	.	.	4dd\
.	.	1c	2e\	1A	2cc\
.	.	.	2c\	.	2a/
=180	=180	=180	=180	=180	=180
1r	2.G\	2B-\	2.d\	0r	1b-
.	.	2G/	.	.	.
.	4G\	.	4d\	.	.
2.D\	2F\	2A/	1d	.	1a
.	2D\	2F/	.	.	.
4D\	.	.	.	.	.
=181	=181	=181	=181	=181	=181
2C/	1E	2G/	0r	2r	0r
2AA/	.	2.A/	.	2A/	.
1BB-	1D	.	.	1d	.
.	.	4G/	.	.	.
.	.	4G/	.	.	.
.	.	4F/	.	.	.
=182	=182	=182	=182	=182	=182
1AA	2r	1A	1A	1c	2r
.	2A\	.	.	.	2e/
1r	1B-	1r	1d	1r	1g
=183	=183	=183	=183	=183	=183
0r	2.A\	0r	2.c\	0r	2.f/
.	4G\	.	4B-\	.	4e/
.	2F\	.	2A/	.	2d/
.	2E\	.	2G/	.	2c#i/
=184	=184	=184	=184	=184	=184
2r	1D	2r	1A	2r	0d
2A\	.	2A/	.	2f\	.
1B-	1r	1d	1G	1g	.
=185	=185	=185	=185	=185	=185
2.A\	1r	2.c\	0r	2.f\	1r
4G\	.	4c\	.	4e\	.
2F\	2r	2d\	.	2d\	2r
2E\	2G\	2e\	.	2c#i\	2g/
=186	=186	=186	=186	=186	=186
1D	2B-\	4f\	2.F/	1d	2f/
.	.	4d\	.	.	.
.	2A\	2.f\	.	.	2.a/
.	.	.	4G/	.	.
1r	2F\	.	2A/	1r	.
.	.	4e\	.	.	4g/
.	2G\	2d\	2B-\	.	[2g/
=187	=187	=187	=187	=187	=187
1r	1A	2c\	2c\	2r	2g/]
.	.	2F/	2A/	2c\	2f#i/
1GG	1G	1r	1B-	2d\	2g/
.	.	.	.	2B-\	2dd\
=188	=188	=188	=188	=188	=188
1AA	2r	2r	[0Al	2c\	2.cc\
.	2E\	2c\	.	2A/	.
.	.	.	.	.	4b-\
2.FF/	1F	2c\	.	2r	4a/
.	.	.	.	.	4g/
.	.	2A/	.	2A/	[2a/
4GG/	.	.	.	.	.
=189	=189	=189	=189	=189	=189
1AA	2E\	1A	0A_	2.c\	2a/]
.	2.c\	.	.	.	4g/
.	.	.	.	4A/	4f/
2r	.	2r	.	2A/	2e/
.	4B-\	.	.	.	.
2AA/	[2A\	2c\	.	2A/	[2f/
=190	=190	=190	=190	=190	=190
2.FF/	2A\]	2c\	0A_	2.c\	2f/]
.	4G\	2A/	.	.	4e/
4GG/	4F\	.	.	4A/	4d/
1AA	1E	1A	.	2A/	4c#i/
.	.	.	.	.	4d/
.	.	.	.	2E/	4e/
.	.	.	.	.	4c#i/
=191	=191	=191	=191	=191	=191
*^	*	*	*	*	*
[0DD\l	[0D/l	[0Dl	2r	0A_	1.F	[0dl
.	.	.	2A/	.	.	.
.	.	.	2A/	.	.	.
.	.	.	2F/	.	2D/	.
=192	=192	=192	=192	=192	=192	=192
0DD\]yy	0D/]yy	0D]	0Fl	0A]	0Dl	0d]
*v	*v	*	*	*	*	*
==	==	==	==	==	==
*-	*-	*-	*-	*-	*-
!!!RDF**kern: l=long note in original notation
!!!RDF**kern: i=editorial accidental
!!!ENC: Jesse Rodin; Victoria Chang 2011/05/17
!!!END: 17/05/2011
!!!EED: Jesse Rodin
!!!EEV: 2011/08/12/
!!attribution-level@Jos: 1 (secure)
!!!ONB: Attribution is for the added voice only. See Jos2105 for the work attribution
!!!ONB: Translated from MusicXML and edited on 2011/08/12/ by Craig Sapp
!!muse2ps: C^@{COM}\n@{SCT}^u^Sextus voice probably added later^i2I100v100,90,100,100,100,100,130Q16
